X: 22
T: Toss The Feathers
Z: Nicolastille
S: https://thesession.org/tunes/138#setting47059
R: reel
M: 4/4
L: 1/8
K: Dmix
D2AD EDAD|D2AG EAGE|D2AD EDEG|AddB cAGE|
D2AD EDAD|D2AG EAGE|D2AD EDEG|AcGE EDD2|
Addc d2cd|edcd ed~d2|eaag edcd|edcd ed~d2|
eaag efge|dged cAGE|D2AD EGAB|cded cAGE||

